X:202
T:Bottom of the Punchbowl, The
D:CoMando Sessions II, disc 1, track 15
Z:Nigel Gatherer
M:4/4
L:1/8
K:D
FE|"D"D2 D2 d3 e|d2 D2 FGAF|"Em"E2 E2 efgf|"A"edcB AGFE|
"D"D2 D2 d3 e|fedc d2 A2|"G"BcdB "A"ABAG|F/G/F D2 D2:|
de|"D"fedB ABde|fedB d2 A2|"Em"B2 e2 e2 de|"A"f2 e2 e2 e2|
"D"fedB ABde|faef d2 A2|"G"BcdB "A"ABAG|F/G/F D2 D2:|
<end>
<start>
